X:26
T:Connaught Man in Tyrone* (j)
B:NFID.229b
026conn_mt
S:PT
L:1/8
M:6/8
R:jig
Q:320
K:A=G
G|EGG BGG|AGG BGG|Agg fed|cAA A2G|
EGG BGG|AGG BGG|Agg fed|cAA A2:|
e|eaa efg|eaa ged|eaa efg|age dcd|
eaa efg|eaa ged|cde ged|cAA A2:|


%%%

